src/assets/svg/icons/figma-icon.svg

<svg width="80px" height="80px" viewBox="0 0 68 100" fill="none" xmlns="http://www.w3.org/2000/svg">
<path d="M17.1618 100C26.3618 100 33.8285 92.5334 33.8285 83.3334V66.6667H17.1618C7.96179 66.6667 0.495117 74.1334 0.495117 83.3334C0.495117 92.5334 7.96179 100 17.1618 100Z" fill="#0ACF83"/>
<path d="M0.495117 49.9999C0.495117 40.7999 7.96179 33.3333 17.1618 33.3333H33.8285V66.6665H17.1618C7.96179 66.6665 0.495117 59.1999 0.495117 49.9999Z" fill="#A259FF"/>
<path d="M0.495117 16.6667C0.495117 7.46666 7.96179 0 17.1618 0H33.8285V33.3333H17.1618C7.96179 33.3333 0.495117 25.8667 0.495117 16.6667Z" fill="#F24E1E"/>
<path d="M33.8284 0H50.4951C59.6951 0 67.1618 7.46666 67.1618 16.6667C67.1618 25.8667 59.6951 33.3333 50.4951 33.3333H33.8284V0Z" fill="#FF7262"/>
<path d="M67.1618 49.9999C67.1618 59.1999 59.6951 66.6665 50.4951 66.6665C41.295 66.6665 33.8284 59.1999 33.8284 49.9999C33.8284 40.7999 41.295 33.3333 50.4951 33.3333C59.6951 33.3333 67.1618 40.7999 67.1618 49.9999Z" fill="#1ABCFE"/>
</svg>

<svg xmlns="http://www.w3.org/2000/svg" width="80" height="80" viewBox="0 0 68 100" fill="none" xmlns:v="https://vecta.io/nano"><path d="M17.162 100c9.2 0 16.667-7.467 16.667-16.667V66.667H17.162c-9.2 0-16.667 7.467-16.667 16.667S7.962 100 17.162 100z" fill="#0acf83"/><path d="M.495 50c0-9.2 7.467-16.667 16.667-16.667h16.667v33.333H17.162C7.962 66.667.495 59.2.495 50z" fill="#a259ff"/><path d="M.495 16.667C.495 7.467 7.962 0 17.162 0h16.667v33.333H17.162c-9.2 0-16.667-7.467-16.667-16.667z" fill="#f24e1e"/><path d="M33.828 0h16.667c9.2 0 16.667 7.467 16.667 16.667s-7.467 16.667-16.667 16.667H33.828V0z" fill="#ff7262"/><path d="M67.162 50c0 9.2-7.467 16.667-16.667 16.667S33.828 59.2 33.828 50s7.467-16.667 16.667-16.667S67.162 40.8 67.162 50z" fill="#1abcfe"/></svg>
